X: 1
T: Asher
C: Rodney Miller (1984)
%D:1984
R: reel
B: Portland Collection
Z: 2020 John Chambers <jc:trillian.mit.edu>
S: https://www.facebook.com/groups/Fiddletuneoftheday/ 2020-09-06
S: https://www.facebook.com/groups/Fiddletuneoftheday/photos/
M: C|
L: 1/8
K: D
|:\
"D"FEFA d2de | fded Bdef | "Em"g2eg "D/F#"fdad | "G"BdAF "A"EDEF |
"D"DEFA dcde | fded Bdef | "G"g2eg "D"fdad | "A"AFED [1 "D"D2DE :|[2 "D"D4 || [K:Dm]
|:\
"Dm"D2DE F2DE | FEDC A,4 | "Gm"E2EF G2G2 | "Bb"_A2A2 "A"GFDC |
"Dm"D2DE F2DE | FEDC A,4 | "Gm"E2EF G2G_A | "A"GFDC |"Dm"D4 :|
